modules/hawcons-filled/icons/icon-34-rainbow.svg

<?xml version="1.0" encoding="UTF-8" standalone="no"?>
<svg width="32px" height="32px" viewBox="0 0 32 32" version="1.1" xmlns="http://www.w3.org/2000/svg" xmlns:xlink="http://www.w3.org/1999/xlink" xmlns:sketch="http://www.bohemiancoding.com/sketch/ns">
    <!-- Generator: Sketch 3.0.3 (7891) - http://www.bohemiancoding.com/sketch -->
    <title>icon 34 rainbow</title>
    <desc>Created with Sketch.</desc>
    <defs></defs>
    <g id="Page-1" stroke="none" stroke-width="1" fill="none" fill-rule="evenodd" sketch:type="MSPage">
        <g id="icon-34-rainbow" sketch:type="MSArtboardGroup" fill="#929292">
            <path d="M16,11 C24.6336408,11 31.6701266,17.8382298 31.9887344,26.3939664 C31.996114,26.4281417 32,26.4636171 32,26.5 C32,26.7761424 31.7761424,27 31.5,27 C31.2238576,27 31,26.7761424 31,26.5 C30.7280798,18.4471876 24.116951,12 16,12 C7.88304901,12 1.27192023,18.4471876 1.00817632,26.5 C1,26.7761424 0.776142389,27 0.5,27 C0.223857611,27 0,26.7761424 0,26.5 C0,26.4636171 0.00388598844,26.4281417 0.0112655527,26.3939664 C0.329873395,17.8382298 7.36635916,11 16,11 L16,11 Z M16,13 C23.5259569,13 29.66492,18.9384231 29.9867394,26.3851194 C29.995412,26.4220057 30,26.4604671 30,26.5 C30,26.7761424 29.7761424,27 29.5,27 C29.2238576,27 29,26.7761424 29,26.5 C28.7278117,19.5520138 23.0122774,14 16,14 C8.98772264,14 3.27218834,19.5520138 3.00943839,26.5 C3,26.7761424 2.77614239,27 2.5,27 C2.22385761,27 2,26.7761424 2,26.5 C2,26.4604671 2.004588,26.4220057 2.0132606,26.3851194 C2.33508003,18.9384231 8.4740431,13 16,13 L16,13 Z M16,15 C22.4173883,15 27.6582154,20.0374541 27.9839438,26.3738246 C27.994423,26.4141307 28,26.4564141 28,26.5 C28,26.7761424 27.7761424,27 27.5,27 C27.2238576,27 27,26.7761424 27,26.5 C26.7274432,20.6569326 21.9075644,16 16,16 C10.0924356,16 5.27255682,20.6569326 5.01116134,26.5 C5,26.7761424 4.77614239,27 4.5,27 C4.22385761,27 4,26.7761424 4,26.5 C4,26.4564141 4.00557697,26.4141307 4.01605625,26.3738246 C4.34178462,20.0374541 9.58261175,15 16,15 L16,15 Z M0.502643585,28 C0.225041199,28 0,28.2319336 0,28.5 C0,28.7761424 0.221431255,29 0.502643585,29 L31.4973564,29 C31.7749588,29 32,28.7680664 32,28.5 C32,28.2238576 31.7785687,28 31.4973564,28 L0.502643585,28 L0.502643585,28 Z M28,12.5 C28,9.46243373 25.5375663,7 22.5,7 C20.334374,7 18.4610847,8.25164149 17.5640662,10.0709903 C21.42745,10.4233983 24.9172045,12.068415 27.5972007,14.5699114 C27.8569225,13.9309807 28,13.2321992 28,12.5 L28,12.5 Z M22,3.49538898 L22,5.50461102 C22,5.7782068 22.2319336,6 22.5,6 C22.7761424,6 23,5.7842474 23,5.50461102 L23,3.49538898 C23,3.2217932 22.7680664,3 22.5,3 C22.2238576,3 22,3.2157526 22,3.49538898 L22,3.49538898 Z M28.5342115,5.78773445 L27.113477,7.20846897 C26.9200156,7.4019304 26.9271859,7.7227637 27.1167375,7.91231527 C27.3119996,8.10757742 27.622851,8.11330853 27.8205838,7.91557575 L29.2413183,6.49484123 C29.4347797,6.3013798 29.4276094,5.9805465 29.2380578,5.79099493 C29.0427957,5.59573278 28.7319443,5.59000166 28.5342115,5.78773445 L28.5342115,5.78773445 Z M31.5336637,12.0290527 L29.5244417,12.0290527 C29.2508459,12.0290527 29.0290527,12.2609863 29.0290527,12.5290527 C29.0290527,12.8051951 29.2448053,13.0290527 29.5244417,13.0290527 L31.5336637,13.0290527 C31.8072595,13.0290527 32.0290527,12.7971191 32.0290527,12.5290527 C32.0290527,12.2529104 31.8133001,12.0290527 31.5336637,12.0290527 L31.5336637,12.0290527 Z M15.7586817,6.49484123 L17.1794162,7.91557575 C17.3728777,8.10903718 17.693711,8.10186684 17.8832625,7.91231527 C18.0785247,7.71705313 18.0842558,7.40620175 17.886523,7.20846897 L16.4657885,5.78773445 C16.2723271,5.59427302 15.9514938,5.60144335 15.7619422,5.79099493 C15.56668,5.98625707 15.5609489,6.29710845 15.7586817,6.49484123 L15.7586817,6.49484123 Z" id="rainbow" sketch:type="MSShapeGroup"></path>
        </g>
    </g>
</svg>

<svg width="32" height="32" viewBox="0 0 32 32" xmlns="http://www.w3.org/2000/svg"><path d="M16 11c8.634 0 15.67 6.838 15.989 15.394A.502.502 0 0 1 31.5 27a.5.5 0 0 1-.5-.5C30.728 18.447 24.117 12 16 12S1.272 18.447 1.008 26.5A.512.512 0 0 1 .5 27a.5.5 0 0 1-.489-.606C.33 17.838 7.366 11 16 11zm0 2c7.526 0 13.665 5.938 13.987 13.385A.501.501 0 0 1 29.5 27a.5.5 0 0 1-.5-.5C28.728 19.552 23.012 14 16 14S3.272 19.552 3.01 26.5a.514.514 0 0 1-.51.5.5.5 0 0 1-.487-.615C2.335 18.938 8.474 13 16 13zm0 2c6.417 0 11.658 5.037 11.984 11.374A.5.5 0 1 1 27 26.5C26.727 20.657 21.908 16 16 16S5.273 20.657 5.011 26.5a.517.517 0 0 1-.511.5.5.5 0 0 1-.484-.626C4.342 20.037 9.583 15 16 15zM.503 28a.499.499 0 1 0 0 1h30.994a.499.499 0 1 0 0-1H.503zM28 12.5a5.5 5.5 0 0 0-10.436-2.429 16.938 16.938 0 0 1 10.033 4.499c.26-.639.403-1.338.403-2.07zm-6-9.005v2.01c0 .273.232.495.5.495.276 0 .5-.216.5-.495v-2.01A.503.503 0 0 0 22.5 3c-.276 0-.5.216-.5.495zm6.534 2.293l-1.42 1.42a.503.503 0 0 0 .003.704.494.494 0 0 0 .704.004l1.42-1.421a.503.503 0 0 0-.003-.704.494.494 0 0 0-.704-.003zm3 6.241h-2.01a.503.503 0 0 0-.495.5c0 .276.216.5.495.5h2.01a.503.503 0 0 0 .495-.5c0-.276-.216-.5-.495-.5zM15.759 6.495l1.42 1.42a.503.503 0 0 0 .704-.003.494.494 0 0 0 .004-.704l-1.421-1.42a.503.503 0 0 0-.704.003.494.494 0 0 0-.003.704z" fill="#929292" fill-rule="evenodd"/></svg>
